X:1
T:L\'evis Beaulieu
R:reel
S:Portland Collection
S:Roaring Jelly collection
M:C|
K:A
ed |\
"A"c2AA AcBA | "D"FBAF "A"E4 |\
"Bm"BABc d2B2 | "E"AAAc efed |\
"A"c2AA AcBA | "D"FBAF "A"E4 |
"Bm"BABc "E"dBed | "A"c2A2 A2 ::\
ce |\
"A"a2ab afed | cAce a2ef |\
"G"=g2ga ged=c |
B=GBd =g2e^g |\
"A"a2ab afed | cAce a2ee- |\
"Bm"efec "E"dBed | "A"c2A2 A2 :|
